findly-builder/apps/searchassist/src/assets/images/icons/Chat_bot_white.svg

<?xml version="1.0" encoding="UTF-8"?>
<svg width="16px" height="16px" viewBox="0 0 16 16" version="1.1" xmlns="http://www.w3.org/2000/svg" xmlns:xlink="http://www.w3.org/1999/xlink">
    <title>Icon / 16x16 / Banking Bot / Assistant Presonalization Copy</title>
    <g id="Page-1" stroke="none" stroke-width="1" fill="none" fill-rule="evenodd">
        <g id="icons" transform="translate(-112.000000, -41.000000)">
            <g id="Icon-/-16x16-/-Banking-Bot-/-Assistant-Presonalization-Copy" transform="translate(112.000000, 41.000000)">
                <g id="Assistant-Personalization">
                    <rect id="assistant-personalization" fill-opacity="0" fill="#D8D8D8" x="0" y="0" width="16" height="16"></rect>
                    <path d="M7.93831108,2 C8.21971357,2 8.4507954,2.21544836 8.47560263,2.49039113 L8.47780738,2.53949629 L8.47747019,4.32253155 L12.9960888,4.32278523 C13.6448631,4.32278523 14.1747611,4.831755 14.2082729,5.4721847 L14.2099555,5.53665189 L14.2099555,12.7861333 C14.2099555,13.4349076 13.7009857,13.9648056 13.060556,13.9983174 L12.9960888,14 L2.88053333,14 C2.23175909,14 1.70186111,13.4910302 1.66834925,12.8506005 L1.66666667,12.7861333 L1.66666667,5.53665189 C1.66666667,4.88787765 2.17563644,4.35797967 2.81606614,4.32446781 L2.88053333,4.32278523 L7.39847761,4.32253155 L7.39881479,2.53949629 C7.39881479,2.24154072 7.64035551,2 7.93831108,2 Z M12.9960888,5.40177781 L2.88053333,5.40177781 C2.81535555,5.40177781 2.76097592,5.44801022 2.74839942,5.50947006 L2.74565925,5.53665189 L2.74565925,12.7861333 C2.74565925,12.8513111 2.79189166,12.9056907 2.8533515,12.9182673 L2.88053333,12.9210074 L12.9960888,12.9210074 C13.0612666,12.9210074 13.1156462,12.874775 13.1282228,12.8133152 L13.1309629,12.7861333 L13.1309629,5.53665189 C13.1309629,5.46216299 13.0705777,5.40177781 12.9960888,5.40177781 Z M9.37134812,9.8356786 C9.66930369,9.8356786 9.91084441,10.0772193 9.91084441,10.3751749 C9.91084441,10.6565774 9.69539605,10.8876592 9.42045327,10.9124664 L9.37134812,10.9146712 L6.50527405,10.9146712 C6.20731848,10.9146712 5.96577776,10.6731305 5.96577776,10.3751749 C5.96577776,10.0937724 6.18122612,9.86269058 6.45616889,9.83788335 L6.50527405,9.8356786 L9.37134812,9.8356786 Z M5.78875554,7.01183707 C6.18447779,7.01183707 6.50527405,7.33263333 6.50527405,7.72835558 C6.50527405,8.12407783 6.18447779,8.4448741 5.78875554,8.4448741 C5.39303329,8.4448741 5.07223702,8.12407783 5.07223702,7.72835558 C5.07223702,7.33263333 5.39303329,7.01183707 5.78875554,7.01183707 Z M10.0878666,7.01183707 C10.4835889,7.01183707 10.8043851,7.33263333 10.8043851,7.72835558 C10.8043851,8.12407783 10.4835889,8.4448741 10.0878666,8.4448741 C9.69214438,8.4448741 9.37134812,8.12407783 9.37134812,7.72835558 C9.37134812,7.33263333 9.69214438,7.01183707 10.0878666,7.01183707 Z" id="assistant-personalization" fill="#F2F3F5"></path>
                </g>
            </g>
        </g>
    </g>
</svg>

<svg width="16" height="16" xmlns="http://www.w3.org/2000/svg"><g fill="none" fill-rule="evenodd"><path d="M0 0h16v16H0z"/><path d="M7.938 2a.54.54 0 0 1 .538.49l.002.05v1.783h4.518c.649 0 1.179.509 1.212 1.15l.002.064v7.25c0 .648-.509 1.178-1.15 1.211l-.064.002H2.881a1.214 1.214 0 0 1-1.213-1.15l-.001-.064v-7.25c0-.648.509-1.178 1.15-1.212l.064-.001h4.517V2.539A.54.54 0 0 1 7.939 2Zm5.058 3.402H2.881a.135.135 0 0 0-.133.107l-.002.028v7.25c0 .064.046.119.107.131l.028.003h10.115c.065 0 .12-.046.132-.108l.003-.027v-7.25a.135.135 0 0 0-.135-.134ZM9.371 9.836a.54.54 0 0 1 .05 1.076l-.05.003H6.505a.54.54 0 0 1-.049-1.077l.05-.002H9.37ZM5.79 7.012a.717.717 0 1 1 0 1.433.717.717 0 0 1 0-1.433Zm4.299 0a.717.717 0 1 1 0 1.433.717.717 0 0 1 0-1.433Z" fill="#F2F3F5"/></g></svg>
